X:1250
T:Connaughtman's Rambles, The
T:Connachtman's Rambles, The
T:Bean ag Baint Duileasc
T:Gathering Dilisc
O:england
R:jig
N:Dilisc is a kind of edible seaweed.
D:Martin O'Connor: Connaughtman's Rambles
D:Matt Molloy: Stony Steps
M:6/8
L:1/8
K:Bm
FAA dAA|BAB dAG|FAA dfe|dBB BAG|
FAA dAA|BAB def|gfe dfe|1 dBB BAG:|2 dBB B3||
|:fbb faa|fef deg|fbb faa|fed ~e3|
fbb faa|fef def|gfe dfe|1 dBB ~B3:|2 dBB BAG||
